X: 9718
T: Deep Channel
R: reel
M: 4/4
K: Adorian
|:GAAG A2GA|cAAG AGEG|A2AG ABcA|B~G3 B~G3|
~A3G A2GA|cAAG ~A3c|dedc B~G3|dedc BAGB|
A2AG A2GA|cAAG AGEG|A2AG ABGA|B~E3 G~E3|
GAAG A2GA|cAAG A2B/c/d|~e3d B~G3|1 ~A3G AGEG:|2 ~A3G Az d/e/f||
|:g2gf gfeg|fdd^c ~d3e|fdd^c defd|geed efge|
fggf gfeg|fdd^c ~d3B|cBAc BAGA|1 BAAG ~A3f:|2 BAGE A2B/c/d||
|:~e3c ~d3e|cAAG ~A3B|cAAG A2e/f/g|fdd^c defd|
~e3c ~d3e|cAAG ~A3B|cBAc BAGA|1 BAGE ~A3d:|2 BAGE ~A3z||

